app/assets/svg/taxi__svg.svg

<svg width="60" height="60" viewBox="0 0 60 60" fill="none" xmlns="http://www.w3.org/2000/svg">
<rect width="60" height="60" rx="30" fill="#FAC663"/>
<path d="M46.703 31.3539C46.5562 31.2055 43.7657 27.7186 37.6707 27.6073C37.0833 26.5686 34.8435 23.1929 31.2086 23.1929H31.0984L29.4829 20.0769C29.3727 19.8914 29.1892 19.7802 29.0056 19.7802H26.5088C26.2885 19.7802 26.105 19.8914 26.0315 20.0769L24.5629 23.1558H24.0855C23.9387 23.1558 20.4873 22.8962 16.8891 27.5702H14.0986C13.8416 27.5702 13.6213 27.7557 13.5478 28.0153C13.5111 28.2379 12.4096 33.5796 14.2455 35.8796C14.8329 36.5844 15.604 36.9553 16.5586 36.9553H17.3297C17.5867 38.8101 19.1655 40.2197 21.0748 40.2197C22.984 40.2197 24.5629 38.8101 24.8199 36.9553H35.5412C35.7982 38.8101 37.377 40.2197 39.2863 40.2197C41.1955 40.2197 42.7743 38.8101 43.0314 36.9553H46.2624C46.5562 36.9553 46.8132 36.6957 46.8132 36.3989V31.6878C46.8132 31.5765 46.7765 31.4281 46.703 31.3539ZM31.2086 24.2687C33.7788 24.2687 35.5412 26.4202 36.3489 27.6073H28.3814V24.2687H31.2086ZM26.876 20.893H28.6751L29.8501 23.1929H27.8306H25.7745L26.876 20.893ZM24.0488 24.2687H27.3166V27.6073H18.321C21.2951 24.1574 23.9754 24.2687 24.0488 24.2687ZM21.0748 39.1439C19.6061 39.1439 18.3944 37.9198 18.3944 36.436C18.3944 34.9522 19.6061 33.728 21.0748 33.728C22.5434 33.728 23.7551 34.9522 23.7551 36.436C23.7918 37.9198 22.5802 39.1439 21.0748 39.1439ZM39.2863 39.1439C37.8176 39.1439 36.6059 37.9198 36.6059 36.436C36.6059 34.9522 37.8176 33.728 39.2863 33.728C40.7549 33.728 41.9666 34.9522 41.9666 36.436C41.9666 37.9198 40.7916 39.1439 39.2863 39.1439ZM45.7117 35.8796H43.0314C42.7743 34.0248 41.1955 32.6152 39.2863 32.6152C37.377 32.6152 35.7982 34.0248 35.5412 35.8796H24.8199C24.5629 34.0248 22.984 32.6152 21.0748 32.6152C19.1655 32.6152 17.5867 34.0248 17.3297 35.8796H16.5586C15.9344 35.8796 15.4571 35.657 15.0899 35.2118C13.9517 33.7651 14.2455 30.3894 14.5392 28.7201H17.1461H37.3403C42.4439 28.7201 45.1242 31.2797 45.7117 31.9103V35.8796Z" fill="#FFFDFB"/>
<path d="M26.876 20.893H28.6751L29.8501 23.1929H27.8306H25.7745L26.876 20.893Z" fill="#FFFDFB"/>
<path d="M21.0748 39.1439C19.6061 39.1439 18.3944 37.9198 18.3944 36.436C18.3944 34.9522 19.6061 33.728 21.0748 33.728C22.5434 33.728 23.7551 34.9522 23.7551 36.436C23.7918 37.9198 22.5802 39.1439 21.0748 39.1439Z" fill="#FFFDFB"/>
<path d="M39.2863 39.1439C37.8176 39.1439 36.6059 37.9198 36.6059 36.436C36.6059 34.9522 37.8176 33.728 39.2863 33.728C40.7549 33.728 41.9666 34.9522 41.9666 36.436C41.9666 37.9198 40.7916 39.1439 39.2863 39.1439Z" fill="#FFFDFB"/>
</svg>

<svg width="60" height="60" fill="none" xmlns="http://www.w3.org/2000/svg"><rect width="60" height="60" rx="30" fill="#FAC663"/><path d="M46.703 31.354c-.147-.148-2.937-3.635-9.032-3.747-.588-1.038-2.828-4.414-6.462-4.414h-.11l-1.616-3.116a.572.572 0 0 0-.477-.297h-2.497c-.22 0-.404.111-.477.297l-1.47 3.079h-.477c-.146 0-3.598-.26-7.196 4.414H14.1c-.257 0-.478.186-.551.445-.037.223-1.138 5.565.697 7.865.588.704 1.359 1.075 2.314 1.075h.77a3.778 3.778 0 0 0 3.746 3.265c1.909 0 3.488-1.41 3.745-3.265H35.54a3.778 3.778 0 0 0 3.745 3.265c1.91 0 3.488-1.41 3.745-3.265h3.231c.294 0 .551-.26.551-.556v-4.711c0-.111-.037-.26-.11-.334Zm-15.494-7.085c2.57 0 4.332 2.151 5.14 3.338H28.38V24.27h2.828Zm-4.333-3.376h1.8l1.174 2.3h-4.075l1.101-2.3Zm-2.827 3.376h3.268v3.338H18.32c2.974-3.45 5.654-3.338 5.728-3.338Zm-2.974 14.875c-1.469 0-2.68-1.224-2.68-2.708 0-1.484 1.211-2.708 2.68-2.708 1.468 0 2.68 1.224 2.68 2.708.037 1.484-1.175 2.708-2.68 2.708Zm18.211 0c-1.468 0-2.68-1.224-2.68-2.708 0-1.484 1.212-2.708 2.68-2.708 1.469 0 2.68 1.224 2.68 2.708 0 1.484-1.174 2.708-2.68 2.708Zm6.426-3.264h-2.68a3.778 3.778 0 0 0-3.746-3.265 3.778 3.778 0 0 0-3.745 3.265H24.82a3.778 3.778 0 0 0-3.745-3.265 3.778 3.778 0 0 0-3.745 3.265h-.771c-.625 0-1.102-.223-1.47-.668-1.137-1.447-.844-4.823-.55-6.492H37.34c5.104 0 7.784 2.56 8.372 3.19v3.97Z" fill="#FFFDFB"/><path d="M26.876 20.893h1.8l1.174 2.3h-4.075l1.101-2.3ZM21.075 39.144c-1.469 0-2.68-1.224-2.68-2.708 0-1.484 1.211-2.708 2.68-2.708 1.468 0 2.68 1.224 2.68 2.708.037 1.484-1.175 2.708-2.68 2.708ZM39.286 39.144c-1.468 0-2.68-1.224-2.68-2.708 0-1.484 1.212-2.708 2.68-2.708 1.469 0 2.68 1.224 2.68 2.708 0 1.484-1.174 2.708-2.68 2.708Z" fill="#FFFDFB"/></svg>
